Adwaita++-Light/panel/16/gpm-inhibit.svg

<svg height="16" width="16" xmlns="http://www.w3.org/2000/svg">
  <path d="m1.0195312 1c-1.34935132-.02591589-1.3632513 2.0055241-.0136718 1.9980469v10.9902341c-.01904533 1.345843 1.9995237 1.349216 1.9960937.013672h-.0039062v-12.0312499c-.0163961-.5374187-.4504717-.970649-.9921875-.9707031zm2.9785157 1v10.988281h1.0058593v1.273438c0 .726096.7265626.724609.7265626.724609h.2734374 1v-1.998047h1.9980469v1.994141h1.9999999v-1.994141h2v1.996094h.998047.273438s.726562.001489.726562-.724609v-1.271485h.300781c.387663 0 .699219-.304765.699219-.685547v-9.6171871c0-.3807824-.311556-.6855469-.699219-.6855469zm5.0019531 2h2v2h-2zm0 3h2v4h-2z" fill="#444"/>
</svg>

<svg xmlns="http://www.w3.org/2000/svg" width="16" height="16" version="1.1">
 <defs>
  <style id="current-color-scheme" type="text/css">
   .ColorScheme-Text { color:#444444; } .ColorScheme-Highlight { color:#4285f4; }
  </style>
 </defs>
 <path style="fill:currentColor" class="ColorScheme-Text" d="M 1.0195312 1 C -0.32982012 0.97408411 -0.3437201 3.0055241 1.0058594 2.9980469 L 1.0058594 13.988281 C 0.98681407 15.334124 3.0053831 15.337497 3.0019531 14.001953 L 2.9980469 14.001953 L 2.9980469 1.9707031 C 2.9816508 1.4332844 2.5475752 1.0000541 2.0058594 1 L 1.0195312 1 z M 3.9980469 2 L 3.9980469 12.988281 L 5.0039062 12.988281 L 5.0039062 14.261719 C 5.0039062 14.987815 5.7304688 14.986328 5.7304688 14.986328 L 6.0039062 14.986328 L 7.0039062 14.986328 L 7.0039062 12.988281 L 9.0019531 12.988281 L 9.0019531 14.982422 L 11.001953 14.982422 L 11.001953 12.988281 L 13.001953 12.988281 L 13.001953 14.984375 L 14 14.984375 L 14.273438 14.984375 C 14.273438 14.984375 15 14.985864 15 14.259766 L 15 12.988281 L 15.300781 12.988281 C 15.688444 12.988281 16 12.683516 16 12.302734 L 16 2.6855469 C 16 2.3047645 15.688444 2 15.300781 2 L 3.9980469 2 z M 9 4 L 11 4 L 11 6 L 9 6 L 9 4 z M 9 7 L 11 7 L 11 11 L 9 11 L 9 7 z"/>
</svg>
